source/img/footer/twitter-icon.svg

<svg width="25" height="20" viewBox="0 0 25 20" fill="none" xmlns="http://www.w3.org/2000/svg">
<path d="M24.2248 4.39458C24.0248 3.99458 23.3248 4.09458 22.8248 3.99458H21.7248C21.8248 3.59458 22.0248 3.39458 22.2248 2.99458C22.3248 2.59458 22.5248 2.29458 22.4248 1.69458C22.5248 1.49458 22.6248 1.29458 22.7248 1.09458C22.8248 0.994578 22.9248 0.594581 22.8248 0.394581C22.7248 0.194581 22.5248 0.19458 22.2248 0.19458C22.1248 0.19458 22.0248 0.294579 22.0248 0.294579C21.6248 0.694579 21.2248 1.29458 20.7248 1.69458H20.6248C20.5248 1.69458 20.6248 1.69458 20.5248 1.79458C20.4248 1.89458 20.2248 1.99458 20.1248 1.99458C19.8248 2.19458 19.6248 2.39458 19.2248 2.49458C18.7248 2.29458 18.0248 2.19458 17.3248 2.09458C16.1248 2.19458 15.0248 2.29458 14.3248 2.79458C13.4248 3.09458 12.8248 3.79458 12.2248 4.39458C12.2248 4.69458 11.9248 4.79458 11.8248 5.09458C11.8248 5.09458 11.8248 5.19458 11.7248 5.19458C11.7248 5.39458 11.6248 5.49458 11.6248 5.69458C11.6248 5.79458 11.8248 6.09458 11.6248 6.19458C10.8248 6.09458 10.1248 5.59458 9.52477 5.19458C8.82477 4.79458 8.02477 4.59458 7.42477 4.09458C6.72477 3.79458 6.12477 3.29458 5.62477 2.79458C5.42477 2.49458 5.12477 2.29458 4.92477 1.89458C4.52477 1.69458 4.72477 0.994579 4.22477 0.994579C3.92477 0.994579 3.92477 1.19458 3.82477 1.39458C3.72477 1.59458 3.42477 1.59458 3.42477 1.89458C3.42477 1.89458 3.42477 1.99458 3.32477 1.99458C3.12477 3.09458 2.82477 3.99458 2.82477 5.29458C2.92477 5.69458 3.12477 5.99458 3.42477 6.29458C3.02477 6.39458 2.72477 6.49458 2.52477 6.79458C2.42477 7.89458 2.92477 8.39458 3.22477 9.09458C3.32477 9.49458 3.62477 9.79458 3.82477 10.0946C3.82477 10.2946 4.02477 10.3946 4.12477 10.4946C4.12477 10.5946 4.22477 10.5946 4.22477 10.6946C4.22477 10.7946 4.52477 10.8946 4.32477 10.8946C3.92477 10.9946 3.32477 10.9946 3.02477 11.2946C2.92477 11.5946 2.92477 12.0946 3.02477 12.3946C3.02477 12.5946 3.32477 12.6946 3.32477 12.8946C3.82477 13.2946 4.42477 13.5946 4.92477 13.9946C5.52477 14.1946 6.12477 14.2946 6.82477 14.3946C6.72477 14.6946 6.52477 14.9946 6.22477 15.0946C5.42477 15.4946 4.42477 15.5946 3.52477 15.7946C2.92477 15.7946 2.52477 15.9946 1.92477 15.9946C1.62477 16.0946 1.02477 16.0946 0.824768 16.1946C0.724768 16.2946 0.724768 16.2946 0.624768 16.3946C0.524768 16.7946 0.724769 17.0946 1.02477 17.2946C1.02477 17.5946 1.22477 17.5946 1.42477 17.6946C1.52477 17.8946 1.72477 17.9946 1.82477 18.0946C2.32477 18.5946 3.12477 18.8946 3.72477 19.1946C4.52477 19.3946 5.32477 19.5946 6.22477 19.6946C7.12477 19.7946 8.12477 19.7946 9.02477 19.8946H10.0248C10.5248 19.9946 11.2248 19.9946 11.9248 19.9946C12.0248 19.8946 12.2248 19.8946 12.4248 19.8946C12.9248 19.5946 13.6248 19.4946 14.0248 19.1946C14.6248 18.9946 15.0248 18.5946 15.6248 18.2946C16.5248 17.4946 17.5248 16.9946 18.1248 15.8946C18.3248 15.6946 18.5248 15.4946 18.5248 15.1946C18.8248 14.9946 18.9248 14.6946 19.1248 14.4946C19.5248 14.0946 19.8248 13.5946 20.1248 13.0946C20.4248 12.5946 20.7248 11.9946 21.0248 11.4946C21.0248 11.0946 21.3248 10.9946 21.3248 10.5946C21.5248 10.3946 21.5248 9.89458 21.7248 9.69458C21.7248 9.39458 21.7248 9.29458 21.8248 9.09458C21.8248 7.79458 21.8248 6.69458 21.5248 5.69458C22.1248 5.49458 22.7248 5.39458 23.1248 5.09458C23.9248 5.39458 24.4248 4.99458 24.2248 4.39458ZM20.8248 8.39458C20.6248 9.29458 20.2248 9.79458 19.8248 10.3946C19.9248 10.7946 19.7248 10.8946 19.7248 11.2946C19.5248 11.5946 19.4248 11.9946 19.3248 12.2946C19.1248 12.5946 19.0248 12.8946 18.8248 13.1946C18.4248 13.6946 18.0248 14.2946 17.6248 14.7946C17.2248 15.3946 16.7248 15.7946 16.3248 16.2946C15.9248 16.7946 15.4248 17.1946 14.9248 17.5946C14.4248 17.7946 14.0248 17.9946 13.6248 18.2946C13.4248 18.3946 13.1248 18.4946 12.9248 18.5946C12.7248 18.6946 12.4248 18.6946 12.2248 18.8946C11.1248 18.9946 9.92477 19.0946 8.62477 18.9946C7.62477 18.8946 6.52477 18.7946 5.62477 18.5946C4.72477 18.3946 4.12477 17.8946 3.32477 17.5946C3.52477 17.3946 3.92477 17.3946 4.32477 17.3946C4.32477 17.1946 4.72477 17.3946 4.72477 17.2946C5.02477 17.3946 5.02477 17.1946 5.22477 17.1946C5.82477 16.9946 6.42477 16.8946 6.92477 16.5946C7.22477 16.4946 7.32477 16.1946 7.62477 15.9946C7.62477 15.7946 7.72477 15.6946 7.82477 15.5946C7.82477 15.2946 8.02477 15.1946 7.92477 14.7946C8.02477 14.5946 8.22477 14.4946 8.22477 14.0946C8.12477 13.9946 8.12477 13.7946 7.92477 13.6946C7.92477 13.4946 7.52477 13.5946 7.52477 13.4946C7.22477 13.4946 7.12477 13.4946 6.92477 13.3946C6.72477 13.3946 6.42477 13.4946 6.42477 13.2946C5.62477 13.2946 5.12477 12.8946 4.52477 12.5946C4.92477 12.2946 5.52477 12.1946 5.82477 11.8946C6.32477 11.7946 6.92477 11.7946 6.92477 11.1946C6.92477 10.4946 6.12477 10.4946 5.62477 10.3946C4.82477 9.69458 4.42477 8.69458 3.82477 7.89458C4.02477 7.69458 4.42477 7.69458 4.52477 7.49458C5.02477 7.59458 5.02477 7.19458 5.22477 6.99458C5.22477 6.49458 4.92477 6.39458 4.62477 6.19458C4.32477 5.99458 4.12477 5.69458 3.92477 5.49458C3.92477 4.69458 3.92477 3.79458 4.02477 3.09458C4.12477 3.09458 4.12477 3.09458 4.12477 3.19458C4.32477 3.59458 4.72477 3.99458 4.92477 4.39458C5.42477 4.79458 5.82477 5.29458 6.52477 5.49458C7.02477 5.89458 7.62477 6.09458 8.12477 6.49458C8.72477 6.79458 9.32477 7.09458 9.82477 7.39458C10.5248 7.59458 10.9248 8.09458 11.8248 7.99458C12.0248 7.89458 12.2248 7.79458 12.4248 7.69458C12.7248 7.19458 12.3248 6.59458 12.5248 6.09458C12.8248 5.39458 13.3248 5.09458 13.8248 4.59458C14.1248 4.39458 14.4248 4.29458 14.6248 4.09458C14.9248 3.99458 15.3248 3.89458 15.6248 3.69458C16.0248 3.69458 16.3248 3.59458 16.6248 3.59458H17.9248C18.1248 3.69458 18.4248 3.69458 18.6248 3.69458C18.8248 3.79458 19.0248 3.99458 19.3248 4.09458C20.1248 4.79458 20.6248 5.79458 20.7248 7.09458C20.7248 7.39458 20.8248 7.79458 20.8248 8.39458ZM21.1248 2.79458C21.0248 3.09458 20.9248 3.49458 20.5248 3.59458C20.5248 3.49458 20.4248 3.49458 20.4248 3.39458C20.4248 3.19458 20.6248 3.19458 20.7248 3.09458C20.8248 2.99458 20.9248 2.79458 21.1248 2.79458C21.2248 2.79458 21.1248 2.69458 21.1248 2.79458ZM15.6248 5.79458C15.8248 5.89458 15.9248 6.09458 16.1248 6.19458C16.2248 6.39458 16.4248 6.49458 16.7248 6.59458C16.7248 6.39458 17.0248 6.59458 17.1248 6.39458C17.3248 6.39458 17.3248 6.19458 17.4248 6.09458C17.4248 5.59458 17.3248 5.09458 17.0248 4.79458C16.3248 4.29458 15.3248 4.79458 15.6248 5.79458Z" fill="black"/>
</svg>

<svg width="25" height="20" fill="none" xmlns="http://www.w3.org/2000/svg"><path d="M24.22 4.4c-.2-.4-.9-.3-1.4-.4h-1.1c.1-.4.3-.6.5-1 .1-.4.3-.7.2-1.3l.3-.6c.1-.1.2-.5.1-.7-.1-.2-.3-.2-.6-.2-.1 0-.2.1-.2.1-.4.4-.8 1-1.3 1.4h-.1c-.1 0 0 0-.1.1s-.3.2-.4.2c-.3.2-.5.4-.9.5-.5-.2-1.2-.3-1.9-.4-1.2.1-2.3.2-3 .7-.9.3-1.5 1-2.1 1.6 0 .3-.3.4-.4.7 0 0 0 .1-.1.1 0 .2-.1.3-.1.5 0 .1.2.4 0 .5-.8-.1-1.5-.6-2.1-1-.7-.4-1.5-.6-2.1-1.1-.7-.3-1.3-.8-1.8-1.3-.2-.3-.5-.5-.7-.9-.4-.2-.2-.9-.7-.9-.3 0-.3.2-.4.4-.1.2-.4.2-.4.5 0 0 0 .1-.1.1-.2 1.1-.5 2-.5 3.3.1.4.3.7.6 1-.4.1-.7.2-.9.5-.1 1.1.4 1.6.7 2.3.1.4.4.7.6 1 0 .2.2.3.3.4 0 .1.1.1.1.2s.3.2.1.2c-.4.1-1 .1-1.3.4-.1.3-.1.8 0 1.1 0 .2.3.3.3.5.5.4 1.1.7 1.6 1.1.6.2 1.2.3 1.9.4-.1.3-.3.6-.6.7-.8.4-1.8.5-2.7.7-.6 0-1 .2-1.6.2-.3.1-.9.1-1.1.2l-.2.2c-.1.4.1.7.4.9 0 .3.2.3.4.4.1.2.3.3.4.4.5.5 1.3.8 1.9 1.1.8.2 1.6.4 2.5.5.9.1 1.9.1 2.8.2h1c.5.1 1.2.1 1.9.1.1-.1.3-.1.5-.1.5-.3 1.2-.4 1.6-.7.6-.2 1-.6 1.6-.9.9-.8 1.9-1.3 2.5-2.4.2-.2.4-.4.4-.7.3-.2.4-.5.6-.7.4-.4.7-.9 1-1.4.3-.5.6-1.1.9-1.6 0-.4.3-.5.3-.9.2-.2.2-.7.4-.9 0-.3 0-.4.1-.6 0-1.3 0-2.4-.3-3.4.6-.2 1.2-.3 1.6-.6.8.3 1.3-.1 1.1-.7zm-3.4 4c-.2.9-.6 1.4-1 2 .1.4-.1.5-.1.9-.2.3-.3.7-.4 1-.2.3-.3.6-.5.9-.4.5-.8 1.1-1.2 1.6-.4.6-.9 1-1.3 1.5s-.9.9-1.4 1.3c-.5.2-.9.4-1.3.7-.2.1-.5.2-.7.3-.2.1-.5.1-.7.3-1.1.1-2.3.2-3.6.1-1-.1-2.1-.2-3-.4-.9-.2-1.5-.7-2.3-1 .2-.2.6-.2 1-.2 0-.2.4 0 .4-.1.3.1.3-.1.5-.1.6-.2 1.2-.3 1.7-.6.3-.1.4-.4.7-.6 0-.2.1-.3.2-.4 0-.3.2-.4.1-.8.1-.2.3-.3.3-.7-.1-.1-.1-.3-.3-.4 0-.2-.4-.1-.4-.2-.3 0-.4 0-.6-.1-.2 0-.5.1-.5-.1-.8 0-1.3-.4-1.9-.7.4-.3 1-.4 1.3-.7.5-.1 1.1-.1 1.1-.7 0-.7-.8-.7-1.3-.8-.8-.7-1.2-1.7-1.8-2.5.2-.2.6-.2.7-.4.5.1.5-.3.7-.5 0-.5-.3-.6-.6-.8-.3-.2-.5-.5-.7-.7 0-.8 0-1.7.1-2.4.1 0 .1 0 .1.1.2.4.6.8.8 1.2.5.4.9.9 1.6 1.1.5.4 1.1.6 1.6 1 .6.3 1.2.6 1.7.9.7.2 1.1.7 2 .6l.6-.3c.3-.5-.1-1.1.1-1.6.3-.7.8-1 1.3-1.5.3-.2.6-.3.8-.5.3-.1.7-.2 1-.4.4 0 .7-.1 1-.1h1.3c.2.1.5.1.7.1.2.1.4.3.7.4.8.7 1.3 1.7 1.4 3 0 .3.1.7.1 1.3zm.3-5.6c-.1.3-.2.7-.6.8 0-.1-.1-.1-.1-.2 0-.2.2-.2.3-.3.1-.1.2-.3.4-.3.1 0 0-.1 0 0zm-5.5 3c.2.1.3.3.5.4.1.2.3.3.6.4 0-.2.3 0 .4-.2.2 0 .2-.2.3-.3 0-.5-.1-1-.4-1.3-.7-.5-1.7 0-1.4 1z" fill="#000"/></svg>
